X:1054
T:One-Horned Buck, The
R:reel
D:Boys of the Lough: Farewell and Remember Me
D:Caladh Nua
Z:id:hn-reel-1054
M:C|
L:1/8
K:D
D2AD BcdB | D2BF AFEF | D2AD BcdB | FAAF AFEF :|
B2cB A2FA | B2cB AFEF | B2cB A2ag | f2ef dBAF |
BABc A2FA | B2cB AFEF | B2cB A2ag | f2ef dBAF ||

